src/assets/filled/SmartCar.svg

<svg width="24" height="24" viewBox="0 0 24 24"  xmlns="http://www.w3.org/2000/svg">
<path d="M18.7099 9.49C18.6099 9.49 18.5099 9.47001 18.4099 9.43001C18.0299 9.26 17.8599 8.82 18.0199 8.44C18.2099 8.01 18.0999 7.38 17.7499 6.86C17.3999 6.33 16.8699 5.97 16.3899 6C15.9499 6 15.6399 5.67 15.6299 5.26C15.6299 4.84 15.9599 4.51 16.3699 4.5C17.3999 4.48 18.3699 5.07 18.9999 6.02C19.6399 6.98 19.7899 8.13 19.3999 9.03C19.2799 9.32 18.9999 9.49 18.7099 9.49Z" />
<path d="M21.8199 10.4799C21.7499 10.4799 21.6899 10.4699 21.6199 10.4499C21.2199 10.3399 20.9899 9.92986 21.0999 9.52986C21.4799 8.16986 21.1599 6.54986 20.2499 5.18986C19.3399 3.82986 17.9599 2.91986 16.5499 2.74986C16.1399 2.69986 15.8499 2.32986 15.8999 1.91986C15.9499 1.50986 16.3299 1.20986 16.7299 1.26986C18.5599 1.48986 20.3399 2.64986 21.4899 4.36986C22.6399 6.08986 23.0299 8.16986 22.5399 9.94986C22.4499 10.2599 22.1499 10.4799 21.8199 10.4799Z" />
<path d="M17.1201 11.78C17.1201 12.08 16.8701 12.33 16.5701 12.33H3.43013C3.13013 12.33 2.88013 12.08 2.88013 11.78C2.88013 11.48 3.13013 11.23 3.43013 11.23H4.17013L4.45013 9.90996C4.71013 8.62996 5.26013 7.45996 7.44013 7.45996H12.5701C14.7501 7.45996 15.2901 8.63996 15.5601 9.90996L15.8401 11.23H16.5801C16.8701 11.23 17.1201 11.48 17.1201 11.78Z" />
<path d="M17.43 15.9099C17.32 14.7099 17 13.4199 14.66 13.4199H5.34005C3.00005 13.4199 2.68005 14.7099 2.57005 15.9099L2.16005 20.3599C2.11005 20.9099 2.29005 21.4699 2.67005 21.8899C3.06005 22.3099 3.60005 22.5499 4.19005 22.5499H5.56005C6.74005 22.5499 6.97005 21.8699 7.12005 21.4299L7.27005 20.9899C7.44005 20.4899 7.48005 20.3599 8.14005 20.3599H11.88C12.54 20.3599 12.56 20.4299 12.75 20.9899L12.9 21.4299C13.05 21.8799 13.27 22.5499 14.46 22.5499H15.83C16.41 22.5499 16.96 22.3099 17.35 21.8899C17.73 21.4699 17.91 20.9199 17.86 20.3599L17.43 15.9099ZM7.81005 17.4299H5.62005C5.32005 17.4299 5.07005 17.1799 5.07005 16.8799C5.07005 16.5799 5.32005 16.3299 5.62005 16.3299H7.81005C8.11005 16.3299 8.36005 16.5799 8.36005 16.8799C8.36005 17.1799 8.11005 17.4299 7.81005 17.4299ZM14.38 17.4299H12.19C11.89 17.4299 11.64 17.1799 11.64 16.8799C11.64 16.5799 11.89 16.3299 12.19 16.3299H14.38C14.68 16.3299 14.93 16.5799 14.93 16.8799C14.93 17.1799 14.68 17.4299 14.38 17.4299Z" />
</svg>

<?xml version="1.0" encoding="UTF-8"?>
<svg width="24" height="24" viewBox="0 0 24 24" xmlns="http://www.w3.org/2000/svg">
 <path d="m18.71 9.49c-0.1 0-0.2-0.01999-0.3-0.05999-0.38-0.17001-0.55-0.61001-0.39-0.99001 0.19-0.43 0.08-1.06-0.27-1.58-0.35-0.53-0.88-0.89-1.36-0.86-0.44 0-0.75-0.33-0.76-0.74 0-0.42 0.33-0.75 0.74-0.76 1.03-0.02 2 0.57 2.63 1.52 0.64 0.96 0.79 2.11 0.4 3.01-0.12 0.29-0.4 0.46-0.69 0.46z"/>
 <path d="m21.82 10.48c-0.07 0-0.13-0.01-0.2-0.03-0.4-0.11-0.63-0.52004-0.52-0.92004 0.38-1.36 0.06-2.98-0.85-4.34s-2.29-2.27-3.7-2.44c-0.41-0.05-0.7-0.42-0.65-0.83s0.43-0.71 0.83-0.65c1.83 0.22 3.61 1.38 4.76 3.1s1.54 3.8 1.05 5.58c-0.09 0.31004-0.39 0.53004-0.72 0.53004z"/>
 <path d="m17.12 11.78c0 0.3-0.25 0.55-0.55 0.55h-13.14c-0.3 0-0.55-0.25-0.55-0.55s0.25-0.55 0.55-0.55h0.74l0.28-1.32c0.26-1.28 0.81-2.45 2.99-2.45h5.13c2.18 0 2.72 1.18 2.99 2.45l0.28 1.32h0.74c0.29 0 0.54 0.25 0.54 0.55z"/>
 <path d="m17.43 15.91c-0.11-1.2-0.43-2.49-2.77-2.49h-9.32c-2.34 0-2.66 1.29-2.77 2.49l-0.41 4.45c-0.05 0.55 0.13 1.11 0.51 1.53 0.39 0.42 0.93 0.66 1.52 0.66h1.37c1.18 0 1.41-0.68 1.56-1.12l0.15-0.44c0.17-0.5 0.21-0.63 0.87-0.63h3.74c0.66 0 0.68 0.07 0.87 0.63l0.15 0.44c0.15 0.45 0.37 1.12 1.56 1.12h1.37c0.58 0 1.13-0.24 1.52-0.66 0.38-0.42 0.56-0.97 0.51-1.53l-0.43-4.45zm-9.62 1.52h-2.19c-0.3 0-0.55-0.25-0.55-0.55s0.25-0.55 0.55-0.55h2.19c0.3 0 0.55 0.25 0.55 0.55s-0.25 0.55-0.55 0.55zm6.57 0h-2.19c-0.3 0-0.55-0.25-0.55-0.55s0.25-0.55 0.55-0.55h2.19c0.3 0 0.55 0.25 0.55 0.55s-0.25 0.55-0.55 0.55z"/>
</svg>
